inst/assets/svg/wi-night-alt-thunderstorm.svg

<?xml version="1.0" encoding="UTF-8"?>
<svg xmlns="http://www.w3.org/2000/svg" xmlns:xlink="http://www.w3.org/1999/xlink" width="30pt" height="30pt" viewBox="0 0 30 30" version="1.1">
<g id="surface691">
<path style=" stroke:none;fill-rule:nonzero;fill:rgb(0%,0%,0%);fill-opacity:1;" d="M 4.078125 16.878906 C 4.078125 17.988281 4.410156 18.980469 5.070313 19.859375 C 5.730469 20.738281 6.589844 21.328125 7.648438 21.648438 L 6.988281 23.339844 C 6.960938 23.480469 7.011719 23.550781 7.140625 23.550781 L 9.261719 23.550781 L 8.289063 27.058594 L 8.578125 27.058594 L 12.488281 22.121094 C 12.53125 22.070313 12.53125 22.019531 12.5 21.96875 C 12.46875 21.921875 12.421875 21.898438 12.351563 21.898438 L 10.171875 21.898438 L 12.648438 17.269531 C 12.71875 17.128906 12.679688 17.050781 12.519531 17.050781 L 9.558594 17.050781 C 9.46875 17.050781 9.398438 17.101563 9.328125 17.191406 L 8.261719 20.070313 C 7.539063 19.890625 6.949219 19.5 6.480469 18.898438 C 6.011719 18.300781 5.78125 17.628906 5.78125 16.890625 C 5.78125 16.058594 6.058594 15.339844 6.628906 14.71875 C 7.199219 14.101563 7.898438 13.75 8.730469 13.648438 L 9.25 13.570313 C 9.378906 13.570313 9.449219 13.511719 9.449219 13.398438 L 9.519531 12.878906 C 9.628906 11.800781 10.078125 10.890625 10.890625 10.160156 C 11.699219 9.429688 12.648438 9.058594 13.738281 9.058594 C 14.820313 9.058594 15.769531 9.429688 16.589844 10.160156 C 17.410156 10.890625 17.878906 11.800781 18 12.871094 L 18.070313 13.460938 C 18.070313 13.570313 18.128906 13.628906 18.25 13.628906 L 19.871094 13.628906 C 20.78125 13.628906 21.550781 13.949219 22.199219 14.578125 C 22.851563 15.210938 23.171875 15.980469 23.171875 16.871094 C 23.171875 17.71875 22.871094 18.460938 22.269531 19.078125 C 21.671875 19.699219 20.941406 20.050781 20.070313 20.121094 C 19.949219 20.121094 19.878906 20.179688 19.878906 20.289063 L 19.878906 21.671875 C 19.878906 21.789063 19.941406 21.851563 20.070313 21.851563 C 20.949219 21.820313 21.75 21.578125 22.480469 21.128906 C 23.210938 20.679688 23.789063 20.078125 24.210938 19.328125 C 24.628906 18.578125 24.839844 17.761719 24.839844 16.878906 C 24.839844 16.011719 24.621094 15.199219 24.179688 14.429688 C 24.96875 13.671875 25.488281 12.800781 25.738281 11.808594 L 25.878906 11.089844 C 25.890625 11.078125 25.898438 11.050781 25.898438 11.019531 C 25.898438 10.949219 25.851563 10.898438 25.738281 10.871094 L 25.179688 10.691406 C 24.609375 10.53125 24.121094 10.25 23.71875 9.871094 C 23.308594 9.488281 23.019531 9.070313 22.851563 8.640625 C 22.679688 8.199219 22.589844 7.761719 22.589844 7.320313 C 22.589844 7.058594 22.621094 6.789063 22.671875 6.519531 L 22.808594 5.910156 C 22.851563 5.808594 22.808594 5.730469 22.671875 5.679688 C 22.460938 5.589844 22.160156 5.511719 21.769531 5.421875 C 21.378906 5.328125 21 5.289063 20.621094 5.289063 C 20.261719 5.289063 19.890625 5.328125 19.5 5.421875 C 19.121094 5.511719 18.71875 5.640625 18.308594 5.828125 C 17.898438 6.011719 17.5 6.28125 17.109375 6.628906 C 16.71875 6.980469 16.390625 7.378906 16.109375 7.851563 C 15.289063 7.550781 14.488281 7.398438 13.730469 7.398438 C 12.320313 7.398438 11.058594 7.839844 9.96875 8.710938 C 8.878906 9.578125 8.171875 10.699219 7.859375 12.070313 C 6.75 12.328125 5.839844 12.910156 5.121094 13.808594 C 4.441406 14.691406 4.078125 15.71875 4.078125 16.878906 Z M 12.179688 26.699219 C 12.179688 26.859375 12.230469 27.019531 12.328125 27.160156 C 12.429688 27.308594 12.578125 27.410156 12.78125 27.460938 C 12.890625 27.480469 12.988281 27.488281 13.078125 27.488281 C 13.488281 27.488281 13.738281 27.28125 13.839844 26.859375 L 16.160156 18.070313 C 16.21875 17.828125 16.199219 17.621094 16.089844 17.421875 C 15.980469 17.21875 15.808594 17.089844 15.589844 17.03125 C 15.359375 16.960938 15.140625 16.980469 14.941406 17.089844 C 14.738281 17.199219 14.601563 17.359375 14.539063 17.578125 L 12.21875 26.421875 C 12.191406 26.519531 12.179688 26.609375 12.179688 26.699219 Z M 16.351563 23.679688 C 16.351563 23.839844 16.398438 24 16.5 24.140625 C 16.601563 24.28125 16.75 24.390625 16.960938 24.449219 C 16.988281 24.449219 17.039063 24.449219 17.109375 24.460938 C 17.179688 24.46875 17.238281 24.46875 17.269531 24.46875 C 17.648438 24.46875 17.890625 24.261719 17.988281 23.839844 L 19.488281 18.070313 C 19.550781 17.828125 19.53125 17.609375 19.410156 17.410156 C 19.300781 17.21875 19.128906 17.089844 18.898438 17.03125 C 18.671875 16.960938 18.449219 16.980469 18.25 17.089844 C 18.050781 17.199219 17.921875 17.359375 17.859375 17.589844 L 16.359375 23.410156 C 16.359375 23.511719 16.351563 23.601563 16.351563 23.679688 Z M 17.589844 8.75 C 17.921875 8.179688 18.359375 7.75 18.921875 7.449219 C 19.46875 7.148438 20.058594 7 20.679688 7 C 20.800781 7 20.898438 7 20.949219 7.011719 L 20.949219 7.328125 C 20.949219 8.289063 21.210938 9.199219 21.730469 10.058594 C 22.25 10.921875 22.980469 11.570313 23.898438 12.03125 C 23.71875 12.449219 23.460938 12.800781 23.109375 13.101563 C 22.191406 12.308594 21.121094 11.921875 19.890625 11.921875 L 19.570313 11.921875 C 19.289063 10.660156 18.628906 9.609375 17.589844 8.75 Z M 17.589844 8.75 "/>
</g>
</svg>

<?xml version="1.0" encoding="utf-8"?>
<!-- Generator: Adobe Illustrator 22.0.1, SVG Export Plug-In . SVG Version: 6.00 Build 0)  -->
<svg version="1.1" id="Layer_1" xmlns="http://www.w3.org/2000/svg" xmlns:xlink="http://www.w3.org/1999/xlink" x="0px" y="0px"
	 viewBox="0 0 30 30" style="enable-background:new 0 0 30 30;" xml:space="preserve">
<path d="M4.08,16.88c0,1.11,0.33,2.1,0.99,2.98s1.52,1.47,2.58,1.79l-0.66,1.69c-0.03,0.14,0.02,0.21,0.15,0.21h2.12l-0.97,3.51
	h0.29l3.91-4.94c0.04-0.05,0.04-0.1,0.01-0.15c-0.03-0.05-0.08-0.07-0.15-0.07h-2.18l2.48-4.63c0.07-0.14,0.03-0.22-0.13-0.22H9.56
	c-0.09,0-0.16,0.05-0.23,0.14l-1.07,2.88c-0.72-0.18-1.31-0.57-1.78-1.17c-0.47-0.6-0.7-1.27-0.7-2.01c0-0.83,0.28-1.55,0.85-2.17
	c0.57-0.62,1.27-0.97,2.1-1.07l0.52-0.08c0.13,0,0.2-0.06,0.2-0.17l0.07-0.52c0.11-1.08,0.56-1.99,1.37-2.72s1.76-1.1,2.85-1.1
	c1.08,0,2.03,0.37,2.85,1.1s1.29,1.64,1.41,2.71l0.07,0.59c0,0.11,0.06,0.17,0.18,0.17h1.62c0.91,0,1.68,0.32,2.33,0.95
	s0.97,1.4,0.97,2.29c0,0.85-0.3,1.59-0.9,2.21c-0.6,0.62-1.33,0.97-2.2,1.04c-0.12,0-0.19,0.06-0.19,0.17v1.38
	c0,0.12,0.06,0.18,0.19,0.18c0.88-0.03,1.68-0.27,2.41-0.72c0.73-0.45,1.31-1.05,1.73-1.8c0.42-0.75,0.63-1.57,0.63-2.45
	c0-0.87-0.22-1.68-0.66-2.45c0.79-0.76,1.31-1.63,1.56-2.62l0.14-0.72c0.01-0.01,0.02-0.04,0.02-0.07c0-0.07-0.05-0.12-0.16-0.15
	l-0.56-0.18c-0.57-0.16-1.06-0.44-1.46-0.82c-0.41-0.38-0.7-0.8-0.87-1.23c-0.17-0.44-0.26-0.88-0.26-1.32
	c0-0.26,0.03-0.53,0.08-0.8l0.14-0.61c0.04-0.1,0-0.18-0.14-0.23c-0.21-0.09-0.51-0.17-0.9-0.26c-0.39-0.09-0.77-0.13-1.15-0.13
	c-0.36,0-0.73,0.04-1.12,0.13c-0.38,0.09-0.78,0.22-1.19,0.41c-0.41,0.18-0.81,0.45-1.2,0.8c-0.39,0.35-0.72,0.75-1,1.22
	c-0.82-0.3-1.62-0.45-2.38-0.45c-1.41,0-2.67,0.44-3.76,1.31s-1.8,1.99-2.11,3.36c-1.11,0.26-2.02,0.84-2.74,1.74
	C4.44,14.69,4.08,15.72,4.08,16.88z M12.18,26.7c0,0.16,0.05,0.32,0.15,0.46c0.1,0.15,0.25,0.25,0.45,0.3
	c0.11,0.02,0.21,0.03,0.3,0.03c0.41,0,0.66-0.21,0.76-0.63l2.32-8.79c0.06-0.24,0.04-0.45-0.07-0.65c-0.11-0.2-0.28-0.33-0.5-0.39
	c-0.23-0.07-0.45-0.05-0.65,0.06c-0.2,0.11-0.34,0.27-0.4,0.49l-2.32,8.84C12.19,26.52,12.18,26.61,12.18,26.7z M16.35,23.68
	c0,0.16,0.05,0.32,0.15,0.46c0.1,0.14,0.25,0.25,0.46,0.31c0.03,0,0.08,0,0.15,0.01c0.07,0.01,0.13,0.01,0.16,0.01
	c0.38,0,0.62-0.21,0.72-0.63l1.5-5.77c0.06-0.24,0.04-0.46-0.08-0.66c-0.11-0.19-0.28-0.32-0.51-0.38
	c-0.23-0.07-0.45-0.05-0.65,0.06c-0.2,0.11-0.33,0.27-0.39,0.5l-1.5,5.82C16.36,23.51,16.35,23.6,16.35,23.68z M17.59,8.75
	c0.33-0.57,0.77-1,1.33-1.3c0.55-0.3,1.14-0.45,1.76-0.45c0.12,0,0.22,0,0.27,0.01v0.32c0,0.96,0.26,1.87,0.78,2.73
	s1.25,1.51,2.17,1.97c-0.18,0.42-0.44,0.77-0.79,1.07c-0.92-0.79-1.99-1.18-3.22-1.18h-0.32C19.29,10.66,18.63,9.61,17.59,8.75z"/>
</svg>
